static/images/stay-home.svg

<svg enable-background="new 0 0 64 64" viewBox="0 0 64 64" xmlns="http://www.w3.org/2000/svg"><g fill="#62c4c3"><path d="m10 37.43h-2v-.352c-.131-.064-.26-.132-.388-.202l.969-1.75c.254.141.518.267.79.375l.629.251z"/><path d="m5.748 35.493c-.556-.539-1.042-1.149-1.442-1.815l1.714-1.031c.311.518.688.992 1.119 1.409zm-2.374-3.926c-.223-.744-.351-1.512-.378-2.281l1.999-.072c.021.6.121 1.198.295 1.779zm1.79-4.143-1.949-.447c.173-.754.446-1.485.81-2.173l1.768.936c-.283.533-.495 1.1-.629 1.684zm1.671-3.151-1.471-1.355c.249-.271.52-.531.806-.774l.814-.691 1.295 1.523-.812.69c-.224.191-.435.395-.632.607zm3.017-2.634-1.295-1.523 1.573-1.337 1.295 1.523zm3.145-2.674-1.295-1.523 1.573-1.336 1.295 1.523zm3.146-2.673-1.296-1.523 1.572-1.337 1.296 1.523zm3.145-2.674-1.295-1.523 1.573-1.337 1.295 1.523zm3.145-2.674-1.295-1.523 1.572-1.336 1.295 1.523zm3.145-2.673-1.295-1.523 1.573-1.337 1.295 1.523zm3.146-2.673-1.296-1.523 1.572-1.338 1.296 1.523z"/><path d="m31.886 2.91-1.294-1.525 1.408-1.196 1.409 1.196-1.295 1.525-.114-.098z"/><path d="m58.272 35.476-1.397-1.43c.431-.421.806-.897 1.116-1.415l1.716 1.027c-.399.665-.881 1.278-1.435 1.818zm2.362-3.933-1.917-.568c.173-.584.271-1.183.291-1.78l1.999.066c-.026.768-.152 1.536-.373 2.282zm-1.801-4.137c-.137-.586-.35-1.152-.633-1.682l1.764-.943c.366.685.641 1.414.816 2.17zm-1.681-3.147c-.192-.208-.397-.405-.618-.592l-.83-.706 1.296-1.523.829.705c.281.238.545.492.791.757zm-3.02-2.635-1.573-1.337 1.295-1.523 1.573 1.337zm-3.145-2.673-1.573-1.337 1.295-1.523 1.573 1.337zm-3.146-2.674-1.572-1.337 1.296-1.523 1.572 1.337zm-3.145-2.673-1.573-1.337 1.295-1.523 1.573 1.337zm-3.146-2.674-1.572-1.337 1.296-1.523 1.572 1.337zm-3.144-2.673-1.573-1.337 1.295-1.523 1.573 1.337zm-3.145-2.674-1.573-1.337 1.295-1.523 1.573 1.337z"/><path d="m56 37.43h-2v-1.678l.629-.251c.272-.108.535-.234.79-.375l.969 1.75c-.127.07-.257.138-.388.202z"/><path d="m49.013 63.001-.003-2c.56-.001 1.109-.094 1.632-.277l.66 1.889c-.735.256-1.506.387-2.289.388zm-2.001-.001h-1.999v-2h1.999zm-3.998 0h-1.999v-2h1.999zm-3.998 0h-1.999v-2h1.999zm-3.998 0h-1.999v-2h1.999zm-3.998 0h-1.999v-2h1.999zm-3.998 0h-1.999v-2h1.999zm-3.998 0h-1.999v-2h1.999zm-3.998 0h-1.999v-2h1.999zm-3.998 0h-.028c-.774 0-1.535-.126-2.26-.374l.647-1.893c.517.177 1.06.267 1.613.267zm-4.328-1.479c-.615-.48-1.143-1.055-1.568-1.707l1.676-1.092c.304.467.682.878 1.123 1.223zm42.634-.027-1.239-1.57c.438-.346.814-.76 1.115-1.229l1.683 1.08c-.421.657-.945 1.235-1.559 1.719zm-45.129-3.811c-.136-.548-.205-1.114-.205-1.683v-.542h2v.542c0 .407.049.812.146 1.202zm47.601-.042-1.944-.471c.092-.38.138-.774.138-1.17v-.579h2v.579c0 .555-.065 1.106-.194 1.641zm-45.806-4.182h-2v-1.999h2zm46-.037h-2v-1.999h2zm-46-3.961h-2v-1.999h2zm46-.037h-2v-1.999h2zm-46-3.961h-2v-1.998h2zm46-.037h-2v-1.999h2zm-46-3.96h-2v-1.999h2zm46-.038h-2v-1.999h2z"/><path d="m12 32h2v2h-2z"/><path d="m9.576 33.391c-.734-.404-1.361-1.003-1.812-1.729l1.699-1.055c.271.436.644.793 1.078 1.032zm-2.572-4.095c-.007-.11-.011-.22-.011-.331 0-.75.165-1.469.488-2.135l1.799.875c-.19.392-.287.815-.287 1.26 0 .066.002.133.006.198zm3.312-2.801-1.296-1.523 1.54-1.31 1.296 1.523zm3.08-2.618-1.295-1.523 1.54-1.309 1.295 1.523zm3.079-2.618-1.295-1.523 1.54-1.309 1.295 1.523zm3.081-2.617-1.296-1.523 1.54-1.31 1.296 1.523zm3.079-2.619-1.296-1.523 1.54-1.31 1.296 1.523zm3.079-2.618-1.295-1.523 1.54-1.309 1.295 1.523zm3.08-2.618-1.295-1.523 1.54-1.309 1.295 1.523z"/><path d="m31.886 8.16-1.294-1.525 1.408-1.196 1.409 1.196-1.295 1.525-.114-.098z"/><path d="m54.442 33.382-.972-1.748c.434-.241.805-.6 1.073-1.036l1.704 1.047c-.447.728-1.072 1.33-1.805 1.737zm2.557-4.104-1.996-.129c.004-.062.006-.123.006-.185 0-.448-.099-.877-.292-1.271l1.796-.881c.329.671.496 1.395.497 2.151-.002.106-.005.211-.011.315zm-3.325-2.794-1.54-1.309 1.295-1.523 1.54 1.309zm-3.081-2.617-1.54-1.31 1.296-1.523 1.54 1.31zm-3.079-2.618-1.54-1.309 1.295-1.523 1.54 1.309zm-3.079-2.618-1.54-1.309 1.295-1.523 1.54 1.309zm-3.081-2.617-1.54-1.31 1.296-1.523 1.54 1.31zm-3.079-2.618-1.54-1.309 1.295-1.523 1.54 1.309zm-3.08-2.619-1.54-1.309 1.295-1.523 1.54 1.309z"/><path d="m50 32h2v2h-2z"/><path d="m48.664 59h-1.96v-2h1.96zm-3.92 0h-1.96v-2h1.96zm-3.921 0h-1.96v-2h1.96zm-3.92 0h-1.96v-2h1.96zm-3.92 0h-1.96v-2h1.96zm-3.92 0h-1.96v-2h1.96zm-3.919 0h-1.96v-2h1.96zm-3.92 0h-1.96v-2h1.96zm-3.921 0h-1.96v-2h1.96zm-4.472-.928c-.536-.561-.831-1.298-.831-2.073v-.434h2v.435c0 .259.098.504.277.691zm38.345-.006-1.451-1.377c.178-.186.275-.431.275-.689v-.44h2v.44c0 .771-.292 1.506-.824 2.066zm-37.176-4.461h-2v-1.96h2zm38-.005h-2v-1.96h2zm-38-3.914h-2v-1.96h2zm38-.006h-2v-1.96h2zm-38-3.914h-2v-1.96h2zm38-.006h-2v-1.96h2zm-38-3.914h-2v-1.96h2zm38-.006h-2v-1.96h2zm-38-3.914h-2v-1.96h2zm38-.006h-2v-1.96h2z"/></g><path d="m12 29 20-17 20 17h-5v25h-30v-25z" fill="#efbc2e"/><path d="m38.251 28.133c.475-.944.749-2.006.749-3.133 0-3.859-3.14-7-7-7s-7 3.141-7 7c0 1.127.274 2.189.749 3.133-2.709.577-4.749 2.987-4.749 5.867v9h4v11h14v-11h4v-9c0-2.88-2.039-5.29-4.749-5.867z" fill="#ef941d"/><path d="m37 25c0 2.762-2.239 5-5 5s-5-2.238-5-5 2.239-5 5-5 5 2.238 5 5z" fill="#62c4c3"/><path d="m37 30h-10c-2.209 0-4 1.791-4 4v7h4v13h5 5v-13h4v-7c0-2.209-1.791-4-4-4z" fill="#62c4c3"/><path d="m31 41h2v13h-2z" fill="#42a5b2"/><path d="m25 34h2v7h-2z" fill="#42a5b2"/><path d="m37 34h2v7h-2z" fill="#42a5b2"/></svg>

<?xml version="1.0" ?><svg id="_x31_-outline-expand" style="enable-background:new 0 0 64 64;" version="1.1" viewBox="0 0 64 64" xml:space="preserve" xmlns="http://www.w3.org/2000/svg" xmlns:xlink="http://www.w3.org/1999/xlink"><path d="M10,37.43H8v-0.352c-0.131-0.064-0.26-0.132-0.388-0.202l0.969-1.75  c0.254,0.141,0.518,0.267,0.79,0.375L10,35.752V37.43z" style="fill:#62C4C3;"/><path d="M5.748,35.493c-0.556-0.539-1.042-1.149-1.442-1.815l1.714-1.031  c0.311,0.518,0.688,0.992,1.119,1.409L5.748,35.493z M3.374,31.567c-0.223-0.744-0.351-1.512-0.378-2.281l1.999-0.072  c0.021,0.6,0.121,1.198,0.295,1.779L3.374,31.567z M5.164,27.424l-1.949-0.447c0.173-0.754,0.446-1.485,0.81-2.173l1.768,0.936  C5.51,26.273,5.298,26.84,5.164,27.424z M6.835,24.273l-1.471-1.355c0.249-0.271,0.52-0.531,0.806-0.774l0.814-0.691l1.295,1.523  l-0.812,0.69C7.243,23.857,7.032,24.061,6.835,24.273z M9.852,21.639l-1.295-1.523l1.573-1.337l1.295,1.523L9.852,21.639z   M12.997,18.965l-1.295-1.523l1.573-1.336l1.295,1.523L12.997,18.965z M16.143,16.292l-1.296-1.523l1.572-1.337l1.296,1.523  L16.143,16.292z M19.288,13.618l-1.295-1.523l1.573-1.337l1.295,1.523L19.288,13.618z M22.433,10.944l-1.295-1.523l1.572-1.336  l1.295,1.523L22.433,10.944z M25.578,8.271l-1.295-1.523l1.573-1.337l1.295,1.523L25.578,8.271z M28.724,5.598l-1.296-1.523  L29,2.737l1.296,1.523L28.724,5.598z" style="fill:#62C4C3;"/><polygon points="31.886,2.91 30.592,1.385 32,0.189 33.409,1.385 32.114,2.91 32,2.812 " style="fill:#62C4C3;"/><path d="M58.272,35.476l-1.397-1.43c0.431-0.421,0.806-0.897,1.116-1.415l1.716,1.027  C59.308,34.323,58.826,34.936,58.272,35.476z M60.634,31.543l-1.917-0.568c0.173-0.584,0.271-1.183,0.291-1.78l1.999,0.066  C60.981,30.029,60.855,30.797,60.634,31.543z M58.833,27.406c-0.137-0.586-0.35-1.152-0.633-1.682l1.764-0.943  c0.366,0.685,0.641,1.414,0.816,2.17L58.833,27.406z M57.152,24.259c-0.192-0.208-0.397-0.405-0.618-0.592l-0.83-0.706L57,21.438  l0.829,0.705c0.281,0.238,0.545,0.492,0.791,0.757L57.152,24.259z M54.132,21.624l-1.573-1.337l1.295-1.523l1.573,1.337  L54.132,21.624z M50.987,18.951l-1.573-1.337l1.295-1.523l1.573,1.337L50.987,18.951z M47.841,16.277l-1.572-1.337l1.296-1.523  l1.572,1.337L47.841,16.277z M44.696,13.604l-1.573-1.337l1.295-1.523l1.573,1.337L44.696,13.604z M41.55,10.93l-1.572-1.337  l1.296-1.523l1.572,1.337L41.55,10.93z M38.406,8.257L36.833,6.92l1.295-1.523l1.573,1.337L38.406,8.257z M35.261,5.583  l-1.573-1.337l1.295-1.523l1.573,1.337L35.261,5.583z" style="fill:#62C4C3;"/><path d="M56,37.43h-2v-1.678l0.629-0.251c0.272-0.108,0.535-0.234,0.79-0.375l0.969,1.75  c-0.127,0.07-0.257,0.138-0.388,0.202V37.43z" style="fill:#62C4C3;"/><path d="M49.013,63.001l-0.003-2c0.56-0.001,1.109-0.094,1.632-0.277l0.66,1.889  C50.567,62.869,49.796,63,49.013,63.001z M47.012,63h-1.999v-2h1.999V63z M43.014,63h-1.999v-2h1.999V63z M39.016,63h-1.999v-2  h1.999V63z M35.018,63h-1.999v-2h1.999V63z M31.02,63h-1.999v-2h1.999V63z M27.022,63h-1.999v-2h1.999V63z M23.024,63h-1.999v-2  h1.999V63z M19.026,63h-1.999v-2h1.999V63z M15.028,63H15c-0.774,0-1.535-0.126-2.26-0.374l0.647-1.893  C13.904,60.91,14.447,61,15,61L15.028,63z M10.7,61.521c-0.615-0.48-1.143-1.055-1.568-1.707l1.676-1.092  c0.304,0.467,0.682,0.878,1.123,1.223L10.7,61.521z M53.334,61.494l-1.239-1.57c0.438-0.346,0.814-0.76,1.115-1.229l1.683,1.08  C54.472,60.432,53.948,61.01,53.334,61.494z M8.205,57.683C8.069,57.135,8,56.569,8,56v-0.542h2V56c0,0.407,0.049,0.812,0.146,1.202  L8.205,57.683z M55.806,57.641l-1.944-0.471C53.954,56.79,54,56.396,54,56v-0.579h2V56C56,56.555,55.935,57.106,55.806,57.641z   M10,53.459H8V51.46h2V53.459z M56,53.422h-2v-1.999h2V53.422z M10,49.461H8v-1.999h2V49.461z M56,49.424h-2v-1.999h2V49.424z   M10,45.463H8v-1.998h2V45.463z M56,45.426h-2v-1.999h2V45.426z M10,41.466H8v-1.999h2V41.466z M56,41.428h-2v-1.999h2V41.428z" style="fill:#62C4C3;"/><rect height="2" style="fill:#62C4C3;" width="2" x="12" y="32"/><path d="M9.576,33.391c-0.734-0.404-1.361-1.003-1.812-1.729l1.699-1.055  c0.271,0.436,0.644,0.793,1.078,1.032L9.576,33.391z M7.004,29.296c-0.007-0.11-0.011-0.22-0.011-0.331  c0-0.75,0.165-1.469,0.488-2.135l1.799,0.875c-0.19,0.392-0.287,0.815-0.287,1.26c0,0.066,0.002,0.133,0.006,0.198L7.004,29.296z   M10.316,26.495l-1.296-1.523l1.54-1.31l1.296,1.523L10.316,26.495z M13.396,23.877l-1.295-1.523l1.54-1.309l1.295,1.523  L13.396,23.877z M16.475,21.259l-1.295-1.523l1.54-1.309l1.295,1.523L16.475,21.259z M19.556,18.642l-1.296-1.523l1.54-1.31  l1.296,1.523L19.556,18.642z M22.635,16.023L21.339,14.5l1.54-1.31l1.296,1.523L22.635,16.023z M25.714,13.405l-1.295-1.523  l1.54-1.309l1.295,1.523L25.714,13.405z M28.794,10.787l-1.295-1.523l1.54-1.309l1.295,1.523L28.794,10.787z" style="fill:#62C4C3;"/><polygon points="31.886,8.16 30.592,6.635 32,5.439 33.409,6.635 32.114,8.16 32,8.062 " style="fill:#62C4C3;"/><path d="M54.442,33.382l-0.972-1.748c0.434-0.241,0.805-0.6,1.073-1.036l1.704,1.047  C55.8,32.373,55.175,32.975,54.442,33.382z M56.999,29.278l-1.996-0.129c0.004-0.062,0.006-0.123,0.006-0.185  c0-0.448-0.099-0.877-0.292-1.271l1.796-0.881c0.329,0.671,0.496,1.395,0.497,2.151C57.008,29.069,57.005,29.174,56.999,29.278z   M53.674,26.484l-1.54-1.309l1.295-1.523l1.54,1.309L53.674,26.484z M50.593,23.867l-1.54-1.31l1.296-1.523l1.54,1.31L50.593,23.867  z M47.514,21.249l-1.54-1.309l1.295-1.523l1.54,1.309L47.514,21.249z M44.435,18.631l-1.54-1.309l1.295-1.523l1.54,1.309  L44.435,18.631z M41.354,16.014l-1.54-1.31l1.296-1.523l1.54,1.31L41.354,16.014z M38.275,13.396l-1.54-1.309l1.295-1.523  l1.54,1.309L38.275,13.396z M35.195,10.777l-1.54-1.309l1.295-1.523l1.54,1.309L35.195,10.777z" style="fill:#62C4C3;"/><rect height="2" style="fill:#62C4C3;" width="2" x="50" y="32"/><path d="M48.664,59h-1.96v-2h1.96V59z M44.744,59h-1.96v-2h1.96V59z M40.823,59h-1.96v-2h1.96V59z M36.903,59  h-1.96v-2h1.96V59z M32.983,59h-1.96v-2h1.96V59z M29.063,59h-1.96v-2h1.96V59z M25.144,59h-1.96v-2h1.96V59z M21.224,59h-1.96v-2  h1.96V59z M17.303,59h-1.96v-2h1.96V59z M12.831,58.072C12.295,57.511,12,56.774,12,55.999v-0.434h2V56  c0,0.259,0.098,0.504,0.277,0.691L12.831,58.072z M51.176,58.066l-1.451-1.377C49.903,56.503,50,56.258,50,56v-0.44h2V56  C52,56.771,51.708,57.506,51.176,58.066z M14,53.605h-2v-1.96h2V53.605z M52,53.6h-2v-1.96h2V53.6z M14,49.686h-2v-1.96h2V49.686z   M52,49.68h-2v-1.96h2V49.68z M14,45.766h-2v-1.96h2V45.766z M52,45.76h-2V43.8h2V45.76z M14,41.846h-2v-1.96h2V41.846z M52,41.84  h-2v-1.96h2V41.84z M14,37.926h-2v-1.96h2V37.926z M52,37.92h-2v-1.96h2V37.92z" style="fill:#62C4C3;"/><polygon points="12,29 32,12 52,29 47,29 47,54 17,54 17,29 " style="fill:#EFBC2E;"/><path d="M38.251,28.133C38.726,27.189,39,26.127,39,25c0-3.859-3.14-7-7-7s-7,3.141-7,7  c0,1.127,0.274,2.189,0.749,3.133C23.04,28.71,21,31.12,21,34v9h4v11h14V43h4v-9C43,31.12,40.961,28.71,38.251,28.133z" style="fill:#EF941D;"/><path d="M37,25c0,2.762-2.239,5-5,5c-2.761,0-5-2.238-5-5c0-2.762,2.239-5,5-5C34.761,20,37,22.238,37,25  L37,25z" style="fill:#62C4C3;"/><path d="M37,30H27c-2.209,0-4,1.791-4,4v7h4v13h5h5V41h4v-7C41,31.791,39.209,30,37,30L37,30z" style="fill:#62C4C3;"/><rect height="13" style="fill:#42A5B2;" width="2" x="31" y="41"/><rect height="7" style="fill:#42A5B2;" width="2" x="25" y="34"/><rect height="7" style="fill:#42A5B2;" width="2" x="37" y="34"/></svg>
